!!!COM: Robert Schumann
!!!CNT: Deutsch
!!!TXO: Deutsch
!!!OTL: Frage
!!!LYR: Kerner
!!!OPR: Zwo2lf Gedichte
!!!OPS: Op.35
!!!ONM: No. 9
!!!ENC: Ben Fuhrman
!!!YOR: Schumann Lieder - Max Friedlaender, ed.,
!!!YOR: New York: C. F. Peters, Vol. 2
!!!ODT: 1840/
!!NB: Vocal melody and text only encoded.
!!NB: First instance of melodic material only encoded.
**kern	**silbe
*clefG2	*
*k[b-e-a-d-g-]	*
*M2/4	*
!!created: 07/03/06 11:55
!!proofed and posted: 07/03/06 11:55
!!edit time: 20 minutes
=	=
4.r	.
{8f	{Wa2rst
=1	=1
8.e-	du
16d-	nicht,
8d-	heil-
(16a-	-ger
16f)	|
=2	=2
8.e-	A-
16d-	-bend-
8d-}	-schein!}
{8f	{Wa2rst
=3	=3
8.e-	du
16d-	nicht,
(8d-	stern-
16dd-)	|
16b-	-er-
=4	=4
8.a-	-hell-
16g-	-te
8g-}	Nacht!}
{8b-	{Du
=5	=5
8.a-	Blu2-
16g-	-ten
8g-}	schmuck!
{(16dd-	Du
16b-)	|
=6	=6
8.a-	u2pp'
16g-	ger
8g-}	Hain!}
{8b-	{Und
=7	=7
8.a-	du,
16g-	Ge-
8g-	-birg'
(16gg-	voll
16ee-)	|
=8	=8
8.dd-	ern-
16cc	-ster
8cc}	Pracht!}
{8b-	{Du
=9	=9
8.e-	Vo-
16f	-gel-
8g-	-sang
(qg-	aus
8b-)	|
=10	=10
8.e-	Him-
16f	-meln
8g-}	hoch!}
{8ee-	{Du
=12	=12
8.a-	Lied
16b-	aus
8cc-	vol-
8dd-	-ler
=13	=13
8.ee-	Men-
[16cc-	-schen-
16cc-]	|
8a-}	-brust,}
{16a-	wa2rst
=13	=13
8dd-	du
4g-	nicht,
16f	ach,
16f	was
=14	=14
16.b-	fu2ll-
32e-	-te
4e-	noch
8e-	in
=15	=15
8.en	ar-
16en	-ger
16b-	Zeit
16b-	ein
16b-	Herz
16an	mit
=16	=16
2cc}	Lust?}
==	==
*-	*-
